rospo-dark/small/status/microphone-sensitivity-muted-symbolic.svg

<?xml version="1.0" encoding="UTF-8" standalone="no"?>
<svg
   xmlns:dc="http://purl.org/dc/elements/1.1/"
   xmlns:cc="http://creativecommons.org/ns#"
   xmlns:rdf="http://www.w3.org/1999/02/22-rdf-syntax-ns#"
   xmlns:svg="http://www.w3.org/2000/svg"
   xmlns="http://www.w3.org/2000/svg"
   xmlns:sodipodi="http://sodipodi.sourceforge.net/DTD/sodipodi-0.dtd"
   xmlns:inkscape="http://www.inkscape.org/namespaces/inkscape"
   width="22"
   height="22"
   version="1.1"
   id="svg8"
   sodipodi:docname="microphone-sensitivity-muted-symbolic.svg"
   inkscape:version="0.92.1 r">
  <metadata
     id="metadata14">
    <rdf:RDF>
      <cc:Work
         rdf:about="">
        <dc:format>image/svg+xml</dc:format>
        <dc:type
           rdf:resource="http://purl.org/dc/dcmitype/StillImage" />
      </cc:Work>
    </rdf:RDF>
  </metadata>
  <defs
     id="defs12" />
  <sodipodi:namedview
     pagecolor="#ffffff"
     bordercolor="#666666"
     borderopacity="1"
     objecttolerance="10"
     gridtolerance="10"
     guidetolerance="10"
     inkscape:pageopacity="0"
     inkscape:pageshadow="2"
     inkscape:window-width="769"
     inkscape:window-height="480"
     id="namedview10"
     showgrid="false"
     inkscape:zoom="10.727273"
     inkscape:cx="-47.990562"
     inkscape:cy="-6.7926889"
     inkscape:window-x="0"
     inkscape:window-y="0"
     inkscape:window-maximized="0"
     inkscape:current-layer="svg8" />
  <g
     id="g4494"
     transform="translate(3,3)">
    <path
       id="path2"
       d="M 8,0 C 6.6398,0 5.5123,0.90584 5.1445,2.1445 L 11,8 V 3 C 11,1.34 9.66,0 8,0 Z M 5,5.5 V 8 c 0,1.66 1.34,3 3,3 0.7017,0 1.3393,-0.249 1.8496,-0.65 z M 2,7 v 1 c 0,2.97 2.16,5.43 5,5.91 V 16 h 2 v -2.09 c 1.134,-0.191 2.15,-0.708 2.973,-1.437 L 10.562,11.062 C 9.8702,11.642 8.9855,12 8,12 5.77,12 4,10.23 4,8 V 7 Z m 10,0 v 1 c 0,0.3068 -0.051,0.5971 -0.119,0.8809 l 1.568,1.5681 C 13.792,9.7002 14,8.8778 14,8 V 7 Z"
       style="fill:#d3dae3"
       inkscape:connector-curvature="0" />
    <path
       id="path4"
       d="M 2.5,1 15,13.5 13.5,15 1,2.5 Z"
       style="fill:#d3dae3"
       inkscape:connector-curvature="0" />
    <path
       id="path6"
       d="M 2.5,1 15,13.5 13.5,15 1,2.5 Z"
       style="fill:#d3dae3"
       inkscape:connector-curvature="0" />
  </g>
</svg>

<svg xmlns="http://www.w3.org/2000/svg" width="16" height="16" version="1.1">
 <path style="fill:#5c616c" d="M 8,0 C 6.6398,0 5.5123,0.90584 5.1445,2.1445 L 11,8 V 3 C 11,1.34 9.66,0 8,0 Z M 5,5.5 V 8 C 5,9.66 6.34,11 8,11 8.7017,11 9.3393,10.751 9.8496,10.35 Z M 2,7 V 8 C 2,10.97 4.16,13.43 7,13.91 V 16 H 9 V 13.91 C 10.134,13.719 11.15,13.202 11.973,12.473 L 10.562,11.062 C 9.8702,11.642 8.9855,12 8,12 5.77,12 4,10.23 4,8 V 7 Z M 12,7 V 8 C 12,8.3068 11.949,8.5971 11.881,8.8809 L 13.449,10.449 C 13.792,9.7002 14,8.8778 14,8 V 7 Z"/>
 <path style="fill:#5c616c" d="M 2.5,1 15,13.5 13.5,15 1,2.5 Z"/>
 <path style="fill:#5c616c" d="M 2.5,1 15,13.5 13.5,15 1,2.5 Z"/>
</svg>
